sources/design/Outline/ൃ.svg

<svg:svg xmlns:cc="http://creativecommons.org/ns#" xmlns:dc="http://purl.org/dc/elements/1.1/" xmlns:inkscape="http://www.inkscape.org/namespaces/inkscape" xmlns:rdf="http://www.w3.org/1999/02/22-rdf-syntax-ns#" xmlns:sodipodi="http://sodipodi.sourceforge.net/DTD/sodipodi-0.dtd" xmlns:svg="http://www.w3.org/2000/svg" xml:space="preserve" width="1000" height="1000" version="1.1" style="clip-rule:evenodd;fill-rule:evenodd;image-rendering:optimizeQuality;shape-rendering:geometricPrecision;text-rendering:geometricPrecision" viewBox="0 0 1000 1000" id="svg10" sodipodi:docname="ൃ.svg" inkscape:version="1.0.2 (e86c870879, 2021-01-15)"><svg:metadata id="metadata14"><rdf:RDF><cc:Work rdf:about=""><dc:format>image/svg+xml</dc:format><dc:type rdf:resource="http://purl.org/dc/dcmitype/StillImage" /><dc:title /></cc:Work></rdf:RDF></svg:metadata><sodipodi:namedview pagecolor="#ffffff" bordercolor="#666666" borderopacity="1" objecttolerance="10" gridtolerance="10" guidetolerance="10" inkscape:pageopacity="0" inkscape:pageshadow="2" inkscape:window-width="1920" inkscape:window-height="1009" id="namedview12" showgrid="false" inkscape:zoom="0.84890884" inkscape:cx="326.60847" inkscape:cy="600.46482" inkscape:window-x="1920" inkscape:window-y="0" inkscape:window-maximized="1" inkscape:current-layer="svg10" showguides="true" inkscape:guide-bbox="true" inkscape:document-rotation="0" inkscape:pagecheckerboard="0"><sodipodi:guide position="0,1000" orientation="0,1" id="guide16" inkscape:label="" inkscape:locked="true" inkscape:color="rgb(0,0,255)" /><sodipodi:guide position="1763.3122,2036.1693" orientation="1000,0" id="guide18" /><sodipodi:guide position="0,200" orientation="0,1" id="guide20" inkscape:label="base" inkscape:locked="true" inkscape:color="rgb(0,0,255)" /><inkscape:grid type="xygrid" id="grid24" originx="-473.37552" originy="-489.69235" /><sodipodi:guide position="0,0" orientation="0,1" id="guide34" inkscape:label="bottom" inkscape:locked="true" inkscape:color="rgb(0,0,255)" /><sodipodi:guide position="225.05109,1693.3186" orientation="0,1" id="guide44" inkscape:label="" inkscape:locked="false" inkscape:color="rgb(0,0,255)" /><sodipodi:guide position="0,900" orientation="0,1" id="guide46" inkscape:label="" inkscape:locked="true" inkscape:color="rgb(0,0,255)" /><sodipodi:guide position="195.74243,494.96418" orientation="-1,0" id="guide840" inkscape:label="width" inkscape:locked="false" inkscape:color="rgb(0,0,255)" /></sodipodi:namedview>
 <svg:defs id="defs4"><inkscape:path-effect effect="fillet_chamfer" id="path-effect841" is_visible="true" lpeversion="1" satellites_param="F,0,0,1,0,0,0,1 @ F,0,0,1,0,0,0,1 @ F,0,0,1,0,0,0,1 @ F,0,0,1,0,0,0,1 @ F,0,0,1,0,0,0,1 @ F,0,0,1,0,0,0,1 @ F,0,0,1,0,0,0,1 @ F,0,0,1,0,0,0,1 @ F,0,0,1,0,0,0,1 @ F,0,0,1,0,0,0,1 @ F,0,0,1,0,0,0,1 @ F,0,0,1,0,0,0,1 @ F,0,0,1,0,0,0,1 @ F,0,0,1,0,0,0,1 @ F,0,0,1,0,0,0,1 @ F,0,0,1,0,15.105062,0,1 @ F,0,0,1,0,17.256957,0,1 @ F,0,0,1,0,0,0,1 @ F,0,0,1,0,0,0,1 @ F,0,0,1,0,0,0,1 @ F,0,0,1,0,0,0,1 @ F,0,0,1,0,0,0,1 @ F,0,0,1,0,0,0,1 @ F,0,0,1,0,0,0,1 @ F,0,0,1,0,0,0,1 @ F,0,0,1,0,0,0,1 @ F,0,0,1,0,0,0,1 @ F,0,0,1,0,0,0,1 @ F,0,0,1,0,0,0,1 @ F,0,0,1,0,0,0,1 @ F,0,0,1,0,0,0,1 @ F,0,0,1,0,0,0,1" unit="px" method="auto" mode="F" radius="0" chamfer_steps="1" flexible="false" use_knot_distance="true" apply_no_radius="true" apply_with_radius="true" only_selected="true" hide_knots="false" />
  <svg:style type="text/css" id="style2">
   
    .fil0 {fill:#EF7F1A;fill-rule:nonzero}
   
  </svg:style>
 <inkscape:path-effect effect="spiro" id="path-effect1214" is_visible="true" lpeversion="1" /><inkscape:path-effect effect="spiro" id="path-effect1195" is_visible="true" lpeversion="1" /></svg:defs>
 
<svg:g id="path933-9-3-62-3-6"><svg:path style="color:#000000;clip-rule:nonzero;fill:#1a5fb4;fill-rule:nonzero;stroke-linecap:round;stroke-linejoin:round;-inkscape-stroke:none;paint-order:fill stroke markers;shape-rendering:auto" d="M 38.314453,69.880859 C 14.588357000000002,68.500677 -9.0270649,88.467549 -10.201172,112.64844 C -11.154382,132.27992 -11.708366,151.9299 -11.865234,171.58398 C -12.888198,299.75122999999996 3.1107122,427.89723 34.865234,551.95508 C 51.66758,617.5980999999999 71.840998,679.8643599999999 77.994141,741.6386699999999 C 80.168891,763.4720199999999 80.485085,784.88501 77.71875,804.9999999999999 C 33.340342,787.0919999999999 -14.390445999999997,777.5609899999998 -62.44726600000001,777.5781199999999 C -104.69090000000001,777.5932199999999 -151.22984000000002,785.0780799999999 -189.79687,813.3183599999999 C -209.20653000000001,827.5308599999998 -225.75108,846.6703899999999 -235.70117000000002,870.1171899999998 C -245.73421000000002,893.7594399999998 -248.4927,920.7899599999998 -240.91602000000003,946.7656199999998 C -235.25696000000002,966.1669499999998 -224.43622000000002,982.8594599999998 -211.04102000000003,996.2324199999998 C -197.71652000000003,1009.5347999999998 -182.15858000000003,1019.3083999999998 -166.12500000000003,1026.3789 C -134.18149000000003,1040.4653999999998 -101.41795000000003,1043.8227 -71.82617200000003,1046.0879 C -38.32939500000003,1048.652 -3.1796354000000235,1050.0174 32.73242199999997,1044.9336 C 68.78315499999997,1039.8302 105.55950999999997,1028.0185000000001 137.14647999999997,1005.1270000000001 C 165.05052999999998,984.90448 186.50533999999996,957.6501000000001 201.03905999999998,927.56641 C 215.53678999999997,897.55721 223.05786999999998,865.14738 225.16796999999997,832.9550800000001 C 228.94834999999998,775.2805800000001 215.71307999999996,720.0747600000001 199.46093999999997,669.08203 C 183.23344999999998,618.16668 163.92731999999995,570.47442 152.00390999999996,522.87305 C 128.20282999999995,427.85297 131.60306999999997,325.96807 156.70311999999996,230.06250000000006 C 164.02432999999996,202.08869000000004 173.14426999999995,174.57938000000007 183.98241999999996,147.76953000000006 C 188.44835999999995,136.72234000000006 188.40854999999996,122.91189000000006 182.28124999999997,111.58594000000005 C 176.15394999999998,100.25998000000006 164.36414999999997,92.52422400000005 152.49022999999997,90.36328100000006 L 43.054687,70.447266 C 41.478579,70.160428 39.896193000000004,69.972872 38.314453,69.880859 M 49.078125,132.52734 L 120.54492,145.53320000000002 C 112.12366,168.27028 104.79777,191.41222000000002 98.658203,214.87109000000004 C 71.266515,319.53285000000005 67.227012,431.3618 93.800781,537.45117 C 107.09126,590.5102 127.01104000000001,639.3460600000001 142.29492,687.30078 C 157.55415,735.17812 168.30177999999998,783.15578 165.29492,829.0293 C 164.77155,837.01408 163.66912,844.89311 162.29102,852.69336 C 152.98426,845.7012599999999 143.37268,839.14873 133.46875,833.07812 C 140.96214,800.05148 140.81158,766.93789 137.69922,735.69141 C 130.68387,665.26101 109.13305,600.1445 92.990234,537.07812 C 62.496896,417.94744 47.15226,294.91801 48.132812,172.06445 C 48.238031,158.88164 48.599136,145.70197 49.078125,132.52733999999998 L 49.078125,132.52734 M -62.425781,837.57812 C -21.326874000000004,837.56352 19.900768999999997,846.07789 58.050781,861.87305 C 54.44834,867.6472 50.398979,872.97055 45.966797,877.7890600000001 C 35.541112999999996,869.80074 24.327945,862.8114700000001 12.388672,857.13867 C -22.123742999999997,840.7405100000001 -61.150538999999995,835.21238 -98.859375,841.3808600000001 C -110.03854,843.2095700000001 -123.85834,846.26556 -137.35547,855.4648400000001 C -144.17243,860.11111 -150.6402,866.2353300000001 -155.69922,874.2832000000001 C -160.81915,882.4279700000001 -164.2137,892.0906100000001 -164.44141,902.9414100000001 C -164.64926,912.8461700000001 -162.16642,921.8680100000001 -158.14257999999998,929.7011700000002 C -154.15824999999998,937.4574300000002 -148.84984999999998,943.6820700000002 -143.10936999999998,948.6660200000001 C -131.72333999999998,958.5515200000001 -119.45420999999999,963.1579100000001 -109.2832,966.2500000000001 C -79.76655299999999,975.2233700000002 -49.645911999999996,975.4516900000001 -21.613281,971.6816400000001 C -1.8404711999999996,969.0224400000001 18.554949999999998,964.0960600000001 37.939453,955.5058600000001 C 39.67104,958.0574900000001 41.321233,960.6589400000001 42.851562,963.3222700000001 A 30.003,30.003 0.0 0,0 61.173828,976.9062500000001 C 49.415962,980.8369700000001 37.033591,983.7281900000002 24.324219,985.5273400000001 C -4.628359200000002,989.6259100000001 -35.422619,988.6996700000001 -67.246094,986.26367 C -95.256834,984.11953 -120.99803,980.7021100000001 -141.91406,971.47852 C -152.31025,966.89398 -161.53277,960.87728 -168.65039000000002,953.77148 C -175.69729,946.73628 -180.88708000000003,938.29348 -183.31641000000002,929.96484 C -186.52889000000002,918.9512599999999 -185.48765000000003,905.38337 -180.46875000000003,893.55664 C -175.36691000000002,881.53445 -166.02747000000002,870.2795 -154.34961000000004,861.72852 C -130.74160000000003,844.44182 -97.24342300000004,837.59054 -62.42578100000004,837.57812 L -62.425781,837.57812 M -69.880859,898.96484 C -51.693452,898.82165 -33.377664,902.5983 -16.8125,909.85547 C -21.040317,910.72167 -25.249838,911.63049 -29.609375,912.2167999999999 C -51.564239,915.16946 -73.08992599999999,914.54095 -91.830078,908.8437499999999 C -96.859482,907.3147599999999 -100.01534,905.7190299999999 -102.07617,904.3867199999999 C -99.61297300000001,903.0951199999998 -95.51918500000001,901.6317399999998 -89.173828,900.5937499999999 C -82.823487,899.5549499999998 -76.362701,899.0158799999999 -69.880859,898.9648399999999 L -69.880859,898.96484" id="path16970" /></svg:g></svg:svg>

<svg:svg xmlns:cc="http://creativecommons.org/ns#" xmlns:dc="http://purl.org/dc/elements/1.1/" xmlns:inkscape="http://www.inkscape.org/namespaces/inkscape" xmlns:rdf="http://www.w3.org/1999/02/22-rdf-syntax-ns#" xmlns:sodipodi="http://sodipodi.sourceforge.net/DTD/sodipodi-0.dtd" xmlns:svg="http://www.w3.org/2000/svg" xml:space="preserve" width="1000" height="1000" version="1.1" style="clip-rule:evenodd;fill-rule:evenodd;image-rendering:optimizeQuality;shape-rendering:geometricPrecision;text-rendering:geometricPrecision" viewBox="0 0 1000 1000" id="svg10" sodipodi:docname="ൃ.svg" inkscape:version="1.0.2 (e86c870879, 2021-01-15)"><svg:metadata id="metadata14"><rdf:RDF><cc:Work rdf:about=""><dc:format>image/svg+xml</dc:format><dc:type rdf:resource="http://purl.org/dc/dcmitype/StillImage" /><dc:title /></cc:Work></rdf:RDF></svg:metadata><sodipodi:namedview pagecolor="#ffffff" bordercolor="#666666" borderopacity="1" objecttolerance="10" gridtolerance="10" guidetolerance="10" inkscape:pageopacity="0" inkscape:pageshadow="2" inkscape:window-width="1920" inkscape:window-height="1009" id="namedview12" showgrid="false" inkscape:zoom="0.84890884" inkscape:cx="326.60847" inkscape:cy="600.46482" inkscape:window-x="1920" inkscape:window-y="0" inkscape:window-maximized="1" inkscape:current-layer="svg10" showguides="true" inkscape:guide-bbox="true" inkscape:document-rotation="0" inkscape:pagecheckerboard="0"><sodipodi:guide position="0,1000" orientation="0,1" id="guide16" inkscape:label="" inkscape:locked="true" inkscape:color="rgb(0,0,255)" /><sodipodi:guide position="1763.3122,2036.1693" orientation="1000,0" id="guide18" /><sodipodi:guide position="0,200" orientation="0,1" id="guide20" inkscape:label="base" inkscape:locked="true" inkscape:color="rgb(0,0,255)" /><inkscape:grid type="xygrid" id="grid24" originx="-473.37552" originy="-489.69235" /><sodipodi:guide position="0,0" orientation="0,1" id="guide34" inkscape:label="bottom" inkscape:locked="true" inkscape:color="rgb(0,0,255)" /><sodipodi:guide position="225.05109,1693.3186" orientation="0,1" id="guide44" inkscape:label="" inkscape:locked="false" inkscape:color="rgb(0,0,255)" /><sodipodi:guide position="0,900" orientation="0,1" id="guide46" inkscape:label="" inkscape:locked="true" inkscape:color="rgb(0,0,255)" /><sodipodi:guide position="195.74243,494.96418" orientation="-1,0" id="guide840" inkscape:label="width" inkscape:locked="false" inkscape:color="rgb(0,0,255)" /></sodipodi:namedview>
 <svg:defs id="defs4"><inkscape:path-effect effect="fillet_chamfer" id="path-effect841" is_visible="true" lpeversion="1" satellites_param="F,0,0,1,0,0,0,1 @ F,0,0,1,0,0,0,1 @ F,0,0,1,0,0,0,1 @ F,0,0,1,0,0,0,1 @ F,0,0,1,0,0,0,1 @ F,0,0,1,0,0,0,1 @ F,0,0,1,0,0,0,1 @ F,0,0,1,0,0,0,1 @ F,0,0,1,0,0,0,1 @ F,0,0,1,0,0,0,1 @ F,0,0,1,0,0,0,1 @ F,0,0,1,0,0,0,1 @ F,0,0,1,0,0,0,1 @ F,0,0,1,0,0,0,1 @ F,0,0,1,0,0,0,1 @ F,0,0,1,0,15.105062,0,1 @ F,0,0,1,0,17.256957,0,1 @ F,0,0,1,0,0,0,1 @ F,0,0,1,0,0,0,1 @ F,0,0,1,0,0,0,1 @ F,0,0,1,0,0,0,1 @ F,0,0,1,0,0,0,1 @ F,0,0,1,0,0,0,1 @ F,0,0,1,0,0,0,1 @ F,0,0,1,0,0,0,1 @ F,0,0,1,0,0,0,1 @ F,0,0,1,0,0,0,1 @ F,0,0,1,0,0,0,1 @ F,0,0,1,0,0,0,1 @ F,0,0,1,0,0,0,1 @ F,0,0,1,0,0,0,1 @ F,0,0,1,0,0,0,1" unit="px" method="auto" mode="F" radius="0" chamfer_steps="1" flexible="false" use_knot_distance="true" apply_no_radius="true" apply_with_radius="true" only_selected="true" hide_knots="false" />
  <svg:style type="text/css" id="style2">
   
    .fil0 {fill:#EF7F1A;fill-rule:nonzero}
   
  </svg:style>
 <inkscape:path-effect effect="spiro" id="path-effect1214" is_visible="true" lpeversion="1" /><inkscape:path-effect effect="spiro" id="path-effect1195" is_visible="true" lpeversion="1" /></svg:defs>
 
<svg:g id="path933-9-3-62-3-6"><svg:path style="color:#000000;clip-rule:nonzero;fill:#1a5fb4;fill-rule:nonzero;stroke-linecap:round;stroke-linejoin:round;-inkscape-stroke:none;shape-rendering:auto" d="m 38.314453,69.880859 c -23.726096,-1.380182 -47.3415179,18.58669 -48.515625,42.767581 -0.95321,19.63148 -1.507194,39.28146 -1.664062,58.93554 -1.022964,128.16725 14.9759462,256.31325 46.730468,380.3711 16.802346,65.64302 36.975764,127.90928 43.128907,189.68359 2.17475,21.83335 2.490944,43.24634 -0.275391,63.36133 -44.378408,-17.908 -92.109196,-27.43901 -140.166016,-27.42188 -42.243634,0.0151 -88.782574,7.49996 -127.349604,35.74024 -19.40966,14.2125 -35.95421,33.35203 -45.9043,56.79883 -10.03304,23.64225 -12.79153,50.67277 -5.21485,76.64843 5.65906,19.40133 16.4798,36.09384 29.875,49.4668 13.3245,13.30238 28.88244,23.07598 44.91602,30.14648 31.94351,14.0865 64.70705,17.4438 94.298828,19.709 33.496777,2.5641 68.6465366,3.9295 104.558594,-1.1543 36.050733,-5.1034 72.827088,-16.9151 104.414058,-39.8066 27.90405,-20.22252 49.35886,-47.4769 63.89258,-77.56059 14.49773,-30.0092 22.01881,-62.41903 24.12891,-94.61133 3.78038,-57.6745 -9.45489,-112.88032 -25.70703,-163.87305 -16.22749,-50.91535 -35.53362,-98.60761 -47.45703,-146.20898 -23.80108,-95.02008 -20.40084,-196.90498 4.69921,-292.81055 7.32121,-27.97381 16.44115,-55.48312 27.2793,-82.29297 4.46594,-11.04719 4.42613,-24.85764 -1.70117,-36.18359 -6.1273,-11.32596 -17.9171,-19.061716 -29.79102,-21.222659 L 43.054687,70.447266 c -1.576108,-0.286838 -3.158494,-0.474394 -4.740234,-0.566407 z m 10.763672,62.646481 71.466795,13.00586 c -8.42126,22.73708 -15.74715,45.87902 -21.886717,69.33789 -27.391688,104.66176 -31.431191,216.49071 -4.857422,322.58008 13.290479,53.05903 33.210259,101.89489 48.494139,149.84961 15.25923,47.87734 26.00686,95.855 23,141.72852 -0.52337,7.98478 -1.6258,15.86381 -3.0039,23.66406 -9.30676,-6.9921 -18.91834,-13.54463 -28.82227,-19.61524 7.49339,-33.02664 7.34283,-66.14023 4.23047,-97.38671 C 130.68387,665.26101 109.13305,600.1445 92.990234,537.07812 62.496896,417.94744 47.15226,294.91801 48.132812,172.06445 c 0.105219,-13.18281 0.466324,-26.36248 0.945313,-39.53711 z M -62.425781,837.57812 c 41.098907,-0.0146 82.32655,8.49977 120.476562,24.29493 -3.602441,5.77415 -7.651802,11.0975 -12.083984,15.91601 -10.425684,-7.98832 -21.638852,-14.97759 -33.578125,-20.65039 -34.512415,-16.39816 -73.539211,-21.92629 -111.248047,-15.75781 -11.179165,1.82871 -24.998965,4.8847 -38.496095,14.08398 -6.81696,4.64627 -13.28473,10.77049 -18.34375,18.81836 -5.11993,8.14477 -8.51448,17.80741 -8.74219,28.65821 -0.20785,9.90476 2.27499,18.9266 6.29883,26.75976 3.98433,7.75626 9.29273,13.9809 15.03321,18.96485 11.38603,9.8855 23.65516,14.49189 33.82617,17.58398 29.516647,8.97337 59.637288,9.20169 87.669919,5.43164 19.7728098,-2.6592 40.168231,-7.58558 59.552734,-16.17578 1.731587,2.55163 3.38178,5.15308 4.912109,7.81641 a 30.003,30.003 0 0 0 18.322266,13.58398 c -11.757866,3.93072 -24.140237,6.82194 -36.849609,8.62109 -28.9525782,4.09857 -59.746838,3.17233 -91.570313,0.73633 -28.01074,-2.14414 -53.751936,-5.56156 -74.667966,-14.78515 -10.39619,-4.58454 -19.61871,-10.60124 -26.73633,-17.70704 -7.0469,-7.0352 -12.23669,-15.478 -14.66602,-23.80664 -3.21248,-11.01358 -2.17124,-24.58147 2.84766,-36.4082 5.10184,-12.02219 14.44128,-23.27714 26.11914,-31.82812 23.60801,-17.2867 57.106187,-24.13798 91.923829,-24.1504 z m -7.455078,61.38672 c 18.187407,-0.14319 36.503195,3.63346 53.068359,10.89063 -4.227817,0.8662 -8.437338,1.77502 -12.796875,2.36133 -21.954864,2.95266 -43.480551,2.32415 -62.220703,-3.37305 -5.029404,-1.52899 -8.185262,-3.12472 -10.246092,-4.45703 2.463197,-1.2916 6.556985,-2.75498 12.902342,-3.79297 6.350341,-1.0388 12.811127,-1.57787 19.292969,-1.62891 z" id="path16918" /></svg:g></svg:svg>
